life2/build/assets/img/close.svg

<svg width="23" height="22" viewBox="0 0 23 22" fill="none" xmlns="http://www.w3.org/2000/svg">
<path fill-rule="evenodd" clip-rule="evenodd" d="M0.778642 18.5028C0.0181973 19.2646 0.0181978 20.4997 0.778643 21.2615C1.53909 22.0233 2.77201 22.0233 3.53246 21.2615L10.9175 13.8634L18.4701 21.4293C19.2306 22.1911 20.4635 22.1911 21.224 21.4293C21.9844 20.6676 21.9844 19.4324 21.224 18.6707L13.6713 11.1047L21.4323 3.33003C22.1927 2.56824 22.1927 1.33313 21.4323 0.571341C20.6718 -0.190448 19.4389 -0.190447 18.6784 0.571342L10.9175 8.346L3.32415 0.739212C2.5637 -0.0225769 1.33078 -0.0225769 0.570333 0.739212C-0.190112 1.501 -0.19011 2.73611 0.570334 3.4979L8.1637 11.1047L0.778642 18.5028Z" fill="url(#paint0_linear)"/>
<defs>
<linearGradient id="paint0_linear" x1="11.0013" y1="0" x2="11.0013" y2="22.0007" gradientUnits="userSpaceOnUse">
<stop stop-color="#4A75F8"/>
<stop offset="1" stop-color="#94AFFF"/>
</linearGradient>
</defs>
</svg>

<svg width="23" height="22" viewBox="0 0 23 22" fill="none" xmlns="http://www.w3.org/2000/svg"><path fill-rule="evenodd" clip-rule="evenodd" d="M.779 18.503a1.953 1.953 0 0 0 0 2.759c.76.761 1.993.761 2.753 0l7.386-7.399 7.552 7.566c.76.762 1.994.762 2.754 0 .76-.761.76-1.997 0-2.758l-7.553-7.566 7.761-7.775c.76-.762.76-1.997 0-2.759a1.945 1.945 0 0 0-2.754 0l-7.76 7.775L3.324.739A1.945 1.945 0 0 0 .57.74a1.953 1.953 0 0 0 0 2.759l7.594 7.607-7.385 7.398z" fill="url(#a)"/><defs><linearGradient id="a" x1="11.001" x2="11.001" y2="22.001" gradientUnits="userSpaceOnUse"><stop stop-color="#4A75F8"/><stop offset="1" stop-color="#94AFFF"/></linearGradient></defs></svg>
